X:399
T:Santa Claus
C:Kenny Baker
N:Transcribed by Larry Tanner
R:bluegrass
L:1/8
Q:1/4=220
M:4/4
K:G
"G"B^A Bd z3A | Bd BA G4 | "C"EG z2 A2 ^A2 | "G"B2 z2 z4 | B^A Bd z3A | Bd BA G4 | 
"A"A^G Aa2e f2 | "D"d2 ^c2 =c4 | "G"B^A Bd z3A | Bd BA G4 | "C"EG z2 A2 ^A2 | 
"B"[B7/1F7/1]^D | "C"EG zA2G z2 | "G"BA GE "E"z2 e2 | "A"dB d^A "D"BG EF | "G"G2 G2 G2 ef | 
g2 ef g2 ef | gf ed2B AG | "C"E2 G2 AG A^A | "G"Bd Bd z2 ef | g2 ef g2 ef | gf ed2B A2 | 
"A"A^G Aa2e f2 | "D"[f2d2] [f2^c2] [f2=c2] ef | "G"g2 ef g2 ef | gf ed2B AG | 
"C"EG z2 A2 ^A2 | "B"[B2F2] [BF][BF] [B4F4] | "C"EG zA2G z^A | "G"BA GE "E"ze z2 | 
"A"de dB2A GE | "G"G2 [GB,][GB,] [G4B,4] | 


